img/logo.svg

<svg width="163" height="35" viewBox="0 0 163 35" fill="none" xmlns="http://www.w3.org/2000/svg">
<g clip-path="url(#clip0)">
<path fill-rule="evenodd" clip-rule="evenodd" d="M-0.151001 0.701999V34.302H13.381C15.5624 34.3553 17.7309 33.954 19.7487 33.1235C21.7665 32.2929 23.5892 31.0514 25.101 29.478C26.6506 27.9007 27.8665 26.0273 28.6761 23.9697C29.4857 21.912 29.8724 19.7124 29.813 17.502C29.8724 15.2916 29.4857 13.092 28.6761 11.0343C27.8665 8.9767 26.6506 7.1033 25.101 5.526C23.5891 3.9527 21.7663 2.71131 19.7486 1.8808C17.7308 1.05029 15.5623 0.64884 13.381 0.701999H-0.151001ZM7.582 26.91V8.091H13.382C14.5845 8.0431 15.7838 8.24676 16.903 8.68896C18.0223 9.13116 19.0369 9.80215 19.882 10.659C20.7304 11.5766 21.3875 12.6541 21.8149 13.8285C22.2422 15.0029 22.4313 16.2507 22.371 17.499C22.4313 18.7473 22.2423 19.9951 21.8149 21.1695C21.3876 22.3439 20.7305 23.4214 19.882 24.339C19.0371 25.196 18.0225 25.8672 16.9032 26.3094C15.7839 26.7516 14.5845 26.9552 13.382 26.907H7.582V26.91ZM42.382 20.958H54.464V13.658H42.378V8.091H55.669V0.701999H34.645V34.302H55.91V26.91H42.378V20.958H42.382ZM78.725 34.302L89.744 0.701999H81.286L73.795 25.422L66.304 0.701999H57.847L68.866 34.302H78.725ZM93.125 34.302H100.858V0.701999H93.125V34.302ZM131.74 32.886C134.233 31.574 136.321 29.6076 137.781 27.198L131.111 23.358C130.381 24.659 129.279 25.7121 127.946 26.382C126.505 27.1262 124.903 27.504 123.282 27.482C121.962 27.5449 120.643 27.3343 119.408 26.8635C118.173 26.3927 117.048 25.6718 116.105 24.746C115.195 23.7792 114.489 22.6393 114.028 21.3942C113.568 20.1492 113.362 18.8242 113.423 17.498C113.362 16.1718 113.568 14.8468 114.028 13.6018C114.489 12.3567 115.195 11.2168 116.105 10.25C117.048 9.32423 118.173 8.60333 119.408 8.13252C120.643 7.66171 121.962 7.45114 123.282 7.514C124.893 7.49099 126.486 7.86172 127.921 8.594C129.263 9.27181 130.373 10.3326 131.111 11.642L137.781 7.802C136.294 5.39746 134.191 3.43379 131.691 2.114C129.109 0.720904 126.216 0.00268919 123.282 0.0259991C113.503 -0.246001 105.485 7.717 105.691 17.498C105.483 27.279 113.5 35.245 123.279 34.974C126.229 35.0012 129.138 34.283 131.737 32.886H131.74ZM149.621 20.958H161.703V13.658H149.618V8.091H162.908V0.701999H141.885V34.302H163.15V26.91H149.618V20.958H149.621Z" fill="black"/>
</g>
<defs>
<clipPath id="clip0">
<rect width="163" height="35" fill="white"/>
</clipPath>
</defs>
</svg>

<svg width="163" height="35" fill="none" xmlns="http://www.w3.org/2000/svg"><g clip-path="url(#clip0)"><path fill-rule="evenodd" clip-rule="evenodd" d="M-.15.7v33.6h13.53a15.72 15.72 0 0011.72-4.82 16.46 16.46 0 004.71-11.98A16.46 16.46 0 0019.75 1.88 15.72 15.72 0 0013.38.7H-.15zm7.73 26.21V8.09h5.8a8.65 8.65 0 016.5 2.57 9.4 9.4 0 012.5 6.84 9.4 9.4 0 01-2.5 6.84 8.64 8.64 0 01-6.5 2.57h-5.8zm34.8-5.95h12.08v-7.3H42.38V8.09h13.29V.7H34.65v33.6H55.9v-7.39H42.38v-5.95zM78.72 34.3L89.74.7H81.3l-7.5 24.72L66.3.7h-8.45l11.02 33.6h9.85zm14.4 0h7.74V.7h-7.73v33.6zm38.62-1.41a15.5 15.5 0 006.04-5.7l-6.67-3.83a7.48 7.48 0 01-3.16 3.02 9.87 9.87 0 01-4.67 1.1 9.6 9.6 0 01-7.17-2.73 9.91 9.91 0 01-2.69-7.25 9.93 9.93 0 012.69-7.25 9.6 9.6 0 017.17-2.74 9.9 9.9 0 014.64 1.08 7.59 7.59 0 013.2 3.05l6.66-3.84a15.87 15.87 0 00-6.09-5.69 17.42 17.42 0 00-8.4-2.08 17.12 17.12 0 00-17.6 17.47 17.12 17.12 0 0017.59 17.47c2.95.03 5.86-.69 8.46-2.08zm17.88-11.93h12.08v-7.3h-12.08V8.09h13.29V.7h-21.03v33.6h21.27v-7.39h-13.53v-5.95z" fill="#000"/></g><defs><clipPath id="clip0"><path fill="#fff" d="M0 0h163v35H0z"/></clipPath></defs></svg>
